X: 15370
T: Glasgow Roast
R: strathspey
M: 4/4
K: Eminor
|:e2A2 A>cB<A|B2g2 e2e>d|e>fg2 f2e>d|e2A>c B>AB<d|
e2A2 A>cB<A|B2g2 e2e>d|e>fg2 f2e>d|1 (3efg (e2e>)d (3gfd:|2 (3efg (e2e>)d (3efg||
|:a2A2 A>ag<f|g2B2 B>ee<d|e2A2 A>ee<d|g>gg<f e>d (3efg|
a2A2 A>ag<f|g2B2 B>ee<d|e2e>d e>dB>d|1 (3efg (e2e>)d (3efg:|2 (3efg (e2e>)d (3gfd||

